layouts/images/accessibility.svg

<?xml version="1.0" encoding="UTF-8" standalone="no"?>
<!-- Created with Inkscape (http://www.inkscape.org/) -->

<svg
   xmlns:dc="http://purl.org/dc/elements/1.1/"
   xmlns:cc="http://creativecommons.org/ns#"
   xmlns:rdf="http://www.w3.org/1999/02/22-rdf-syntax-ns#"
   xmlns:svg="http://www.w3.org/2000/svg"
   xmlns="http://www.w3.org/2000/svg"
   xmlns:xlink="http://www.w3.org/1999/xlink"
   version="1.1"
   width="16"
   height="16"
   id="svg3781">
  <defs
     id="defs3783" />
  <metadata
     id="metadata3786">
    <rdf:RDF>
      <cc:Work
         rdf:about="">
        <dc:format>image/svg+xml</dc:format>
        <dc:type
           rdf:resource="http://purl.org/dc/dcmitype/StillImage" />
        <dc:title></dc:title>
      </cc:Work>
    </rdf:RDF>
  </metadata>
  <g
     id="layer1">
    <path
       d="M 8,0 C 3.581722,0 0,3.581722 0,8 c 0,4.418278 3.581722,8 8,8 4.418278,0 8,-3.581722 8,-8 C 16,3.581722 12.418278,0 8,0 z m 0,0.84495773 c 3.951621,0 7.155042,3.20342157 7.155042,7.15504227 0,3.951621 -3.203421,7.155042 -7.155042,7.155042 C 4.0483793,15.155042 0.84495773,11.951621 0.84495773,8 0.84495773,4.0483793 4.0483793,0.84495773 8,0.84495773 z"
       id="path3793"
       style="opacity:0.90833285;color:#000000;fill:#000000;fill-opacity:1;fill-rule:nonzero;stroke:none;stroke-width:1.97899997;marker:none;visibility:visible;display:inline;overflow:visible;enable-background:accumulate" />
    <path
       d="M 10,4 A 2,2 0 1 1 6,4 2,2 0 1 1 10,4 z"
       id="path3898"
       style="opacity:0.90833309;color:#000000;fill:#000000;fill-opacity:1;fill-rule:nonzero;stroke:none;stroke-width:1.97899997;marker:none;visibility:visible;display:inline;overflow:visible;enable-background:accumulate" />
    <path
       d="M 7.388728,6.2014572 C 4.9295462,5.7536351 4.8496196,5.7346198 2.9477785,5.3597102 2.7811235,5.3268575 2.5792428,5.3804592 2.4576046,5.4990227 2.3303501,5.6230606 2.2776154,5.8314903 2.2987815,6.0079304 c 0.018611,0.1551379 0.1016151,0.3321652 0.2415203,0.40174 1.5399347,0.765809 3.336212,1.4173232 3.336212,1.4173232 L 5.835236,9.478106 c 0,0 -0.8126125,2.203011 -1.2361835,3.301932 -0.070546,0.183026 -0.062046,0.420447 0.041598,0.58698 0.090808,0.145908 0.2735157,0.255725 0.4453254,0.259813 0.2072078,0.0049 0.4402893,-0.127471 0.5513687,-0.287449 C 6.5442011,12.033318 8,9.684495 8,9.684495 L 8,6.2014572 z"
       id="path4452"
       style="fill:#000000;fill-opacity:1;stroke:none" />
    <use
       transform="matrix(-1,0,0,1,16,0)"
       id="use4454"
       x="0"
       y="0"
       width="16"
       height="16"
       xlink:href="#path4452" />
  </g>
</svg>

<?xml version="1.0" encoding="UTF-8" standalone="no"?>
<!-- Created with Inkscape (http://www.inkscape.org/) -->
<svg id="svg3781" xmlns:rdf="http://www.w3.org/1999/02/22-rdf-syntax-ns#" xmlns="http://www.w3.org/2000/svg" height="16" width="16" version="1.1" xmlns:cc="http://creativecommons.org/ns#" xmlns:xlink="http://www.w3.org/1999/xlink" xmlns:dc="http://purl.org/dc/elements/1.1/">
 <metadata id="metadata3786">
  <rdf:RDF>
   <cc:Work rdf:about="">
    <dc:format>image/svg+xml</dc:format>
    <dc:type rdf:resource="http://purl.org/dc/dcmitype/StillImage"/>
    <dc:title/>
   </cc:Work>
  </rdf:RDF>
 </metadata>
 <g id="layer1">
  <path id="path3793" style="opacity:.90833;color:#000000" d="m8 0c-4.4183 0-8 3.5817-8 8s3.5817 8 8 8 8-3.5817 8-8-3.582-8-8-8zm0 0.84496c3.9516 0 7.155 3.2034 7.155 7.155s-3.2034 7.155-7.155 7.155-7.155-3.203-7.155-7.155c-0.00004-3.9516 3.2034-7.155 7.155-7.155z"/>
  <path id="path3898" style="opacity:.90833;color:#000000" d="m10 4a2 2 0 1 1 -4 0 2 2 0 1 1 4 0z"/>
  <path id="path4452" d="m7.3887 6.2015c-2.4592-0.4479-2.5391-0.4669-4.4409-0.8418-0.1667-0.0328-0.3686 0.0208-0.4902 0.1393-0.1272 0.1241-0.18 0.3325-0.1588 0.5089 0.018611 0.15514 0.10162 0.33217 0.24152 0.40174 1.5399 0.76581 3.3362 1.4173 3.3362 1.4173l-0.0413 1.6512s-0.81261 2.203-1.2362 3.3019c-0.070546 0.18303-0.062046 0.42045 0.041598 0.58698 0.090808 0.14591 0.27352 0.25572 0.44533 0.25981 0.20721 0.0049 0.44029-0.12747 0.55137-0.28745 0.9069-1.306 2.3627-3.6545 2.3627-3.6545v-3.483z"/>
  <use id="use4454" xlink:href="#path4452" transform="matrix(-1,0,0,1,16,0)" height="16" width="16" y="0" x="0"/>
 </g>
</svg>
